X:1
T:Deh piangi anima
T:Giovanni Animuccia
T:Source : Primo libro delle Laude spirituali a tre voci---Roma---A.Gardano---1583. Editor : André Vierendeels (20/11/17). Notes : Original clefs : G2, C2, C3 Editorial accidentals above the staff
T:Deh piangi anima
T:©
T:©
C:Giovanni Animuccia
Z:©
%%score [ 1 2 3 ]
L:1/8
Q:1/4=120
M:4/4
K:F
V:1 treble nm="Soprano 1" snm="S 1"
V:2 treble nm="Soprano 2" snm="S 2"
V:3 treble-8 nm="Tenor" snm="T"
V:1
"^1)" A4 c4- | c2 B2 A2 A2 | G4 G4 | z2 B2 B4 | A4 G2 F2 | G4 F4 :: z2 B2 d4- | d2 d2 c2 B2 | %8
w: Deh pian|_ gi'a- ni- ma|mi- a,|l'an- ti-|ca tua fol-|li- a,|deh pian-|* gi'af- flit- to|
w: O sven-|* tu- ra- ti|gior- ni,|fal- la-|ce- men- te'a-|dor- ni,|quan- do|_ lun- gi da|
 c4 B4 | z2 A2 c3 B | A2 G2 A4 | G4 z4 | A4 A4 | A2 A4 A2 | B4 G4 | z2 G2 A4 | A2 F4 F2 | %17
w: co- re,|il tuo pas-|sa- to'er- ro-|re,|e'i di|trist' e pe-|no- si,|che ti|pa- rean' gio-|
w: Di- o,|lo sfre- na-|to de- si-|o,|per vie|fan- go- s'e|tor- te,|mi tras-|por- ta- v'a|
 G4 !fermata!F4 :| %18
w: io- si.|
w: mor- te.|
V:2
"^2)""^1)" F4 A4- | A2 G2 E2 F2 | E4 E4 | z2 G2 G4 | F4 E2 F2- | F2 E2 F4 :: z2 F2 B4- | %7
w: Deh pian-|* gi'a- ni- ma|mi- a,|l'an- ti-|ca tua fol-|* li- a,|deh pian-|
w: La fiam-|* ma'ov' io gi-|ac- ca,|let- to|di fior cre-|* de- a,|l'as- sen-|
 B2 B2 A2 G2 | A4 B4 | z2 F2 E3 D |"^#" F2 G4 F2 | G4 z4 | ^F4 F4 | ^F2 F4 F2 | G4 E4 | z2 E2 F4 | %16
w: * gi'af- flit- to|co- re,|il tuo pas-|sa- to'er- ro-|re,|e'i di|trist' e pe-|no- si,|che ti|
w: * tio'il tos- co'e'l|fe- le,|pa- rea- mi'am-|bro- sia'e me-|le,|e le|te- ne- bre|mi- e|lu- ce|
 F2 D4 F2 | E4 !fermata!F4 :| %18
w: pa- rean' gio-|io- si|
w: di mez- zo|di- e.|
V:3
"^3)""^1)""^4)" F4 F4- | F2 G2 A2 F2 | c4 c4 | z2 _e2 e4 | f4 c2 d2 | c4 F4 :: z2 B2 B4- | %7
w: Deh pian-|* gi'a- ni- ma|mi- a,|l'an- ti-|ca tua fol-|li- a,|deh pian-|
w: Mi- se-|* ro me qual|ma- go,|de la|mia pe- na|va- go,|mi'ha- vea|
 B2 B2 f2 g2 | f4 B4 | z2 d2 c3 G | d2 e2 d4 | G4 z4 | d4 d4 | d2 d4 d2 | G4 c4 | z2 c2 F4 | %16
w: * gi'af- flit- to|co- re,|il tuo pas-|sa- to'er- ro-|re,|e'i di|trist' e pe-|no- si,|che ti|
w: _ si tras- for-|ma- to,-|il mio pro-|prio- pec- ca-|to,|las- so|me, fu l'in-|can- to,|che mi|
 F2 B4 d2 | c4 !fermata!F4 :| %18
w: pa- rean' gio-|io- si.|
w: cam- bio co-|tan- to.|

